build/img/icons/template/fullscreen.svg

<svg width="20" height="20" fill="none" xmlns="http://www.w3.org/2000/svg"><path d="M0 0v6h3V3h3V0H0zm3 14H0v6h6v-3H3v-3zM17 0h-3v3h3v3h3V0h-3zm0 17h-3v3h6v-6h-3v3z" fill="#5C6870"/></svg>

<svg width="20" height="20" viewBox="0 0 20 20" fill="none" xmlns="http://www.w3.org/2000/svg">
<path d="M0 0V3V6H3V3H6V0H3H0Z" fill="#5C6870"/>
<path d="M3 14H0V17V20H3H6V17H3V14Z" fill="#5C6870"/>
<path d="M17 0H14V3H17V6H20V3V0H17Z" fill="#5C6870"/>
<path d="M17 17H14V20H17H20V17V14H17V17Z" fill="#5C6870"/>
</svg>
